img/ios.svg

<svg fill="none" height="64" viewBox="0 0 102 64" width="102" xmlns="http://www.w3.org/2000/svg"><g fill="#fff"><path d="m5 55v-32.875h6.8125v32.875zm3.40625-37.9375c-1.08333 0-2.01042-.375-2.78125-1.125-.77083-.7708-1.15625-1.6875-1.15625-2.75 0-1.1042.38542-2.0313 1.15625-2.7813.77083-.74995 1.69792-1.12495 2.78125-1.12495 1.10417 0 2.03125.375 2.78125 1.12495.7708.75 1.1563 1.6771 1.1563 2.7813 0 1.0625-.3855 1.9792-1.1563 2.75-.75.75-1.67708 1.125-2.78125 1.125z"/><path d="m39.0938 55.75c-4.3542 0-8.1146-.9375-11.2813-2.8125-3.1667-1.8958-5.6042-4.5833-7.3125-8.0625-1.7083-3.5-2.5625-7.6354-2.5625-12.4062v-.0626c0-4.7708.8542-8.8958 2.5625-12.375 1.7292-3.4791 4.1771-6.1562 7.3438-8.0312 3.1666-1.8958 6.9166-2.84375 11.25-2.84375 4.3124 0 8.052.94795 11.2187 2.84375s5.6042 4.5833 7.3125 8.0625c1.7083 3.4583 2.5625 7.5729 2.5625 12.3437v.0626c0 4.7708-.8542 8.8958-2.5625 12.375-1.7083 3.4791-4.1458 6.1666-7.3125 8.0624-3.1458 1.8959-6.8854 2.8438-11.2187 2.8438zm0-6.2188c2.875 0 5.3541-.6979 7.4374-2.0937 2.0834-1.3958 3.6876-3.375 4.8126-5.9375s1.6874-5.5729 1.6874-9.0312v-.0626c0-3.4791-.5729-6.4895-1.7187-9.0312-1.125-2.5625-2.7396-4.5312-4.8437-5.9062-2.0834-1.3959-4.5417-2.0938-7.375-2.0938-2.8542 0-5.3334.6875-7.4376 2.0625-2.0833 1.375-3.6979 3.3437-4.8437 5.9063-1.1458 2.5416-1.7187 5.5624-1.7187 9.0624v.0626c0 3.4791.5729 6.5 1.7187 9.0624 1.1458 2.5626 2.7604 4.5417 4.8437 5.9376 2.0834 1.375 4.5626 2.0624 7.4376 2.0624z"/><path d="m82.25 55.75c-3.375 0-6.3333-.5104-8.875-1.5312-2.5208-1.0209-4.5208-2.4792-6-4.375-1.4792-1.9167-2.3125-4.198-2.5-6.8438l-.0312-.4688h6.8437l.0625.4063c.2083 1.375.7812 2.5729 1.7188 3.5937.9583 1 2.2083 1.7709 3.75 2.3126 1.5416.5416 3.3124.8124 5.3124.8124 2.0209 0 3.7605-.2812 5.2188-.8437s2.5833-1.3646 3.375-2.4063c.8125-1.0416 1.2188-2.2604 1.2188-3.6562v-.0312c0-1.8126-.6563-3.25-1.9688-4.3126-1.2917-1.0833-3.4375-1.9479-6.4375-2.5937l-4.9063-1.0313c-4.4166-.9374-7.7083-2.4374-9.875-4.5-2.1666-2.0833-3.25-4.7916-3.25-8.125v-.0312c.0209-2.5625.7292-4.8125 2.125-6.75 1.3959-1.9583 3.323-3.4792 5.7813-4.5625 2.4583-1.10417 5.2813-1.65625 8.4687-1.65625 3.125 0 5.8855.53125 8.2813 1.59375s4.2917 2.5521 5.6875 4.4688c1.3958 1.8958 2.1771 4.1145 2.3438 6.6562l.0312.5h-6.8438l-.0624-.4062c-.1876-1.4167-.7084-2.625-1.5626-3.625-.8333-1-1.927-1.7605-3.2812-2.2813-1.3542-.5417-2.9271-.8125-4.7188-.8125-1.8541 0-3.4687.2812-4.8437.8438-1.375.5416-2.4375 1.302-3.1875 2.2812s-1.125 2.1354-1.125 3.4688v.0312c0 1.6875.6667 3.0625 2 4.125s3.4062 1.8958 6.2188 2.5l4.9062 1.0625c3.1042.6458 5.6354 1.5208 7.5938 2.625 1.9583 1.1042 3.4062 2.4792 4.3437 4.125s1.4063 3.6354 1.4063 5.9687v.0313c0 2.75-.698 5.1354-2.0938 7.1563-1.375 2-3.3542 3.552-5.9375 4.6562-2.5625 1.0833-5.625 1.625-9.1875 1.625z"/></g></svg>

<svg width="102" height="64" viewBox="0 0 102 64" fill="none" xmlns="http://www.w3.org/2000/svg">
<path d="M5 55V22.125H11.8125V55H5ZM8.40625 17.0625C7.32292 17.0625 6.39583 16.6875 5.625 15.9375C4.85417 15.1667 4.46875 14.25 4.46875 13.1875C4.46875 12.0833 4.85417 11.1562 5.625 10.4062C6.39583 9.65625 7.32292 9.28125 8.40625 9.28125C9.51042 9.28125 10.4375 9.65625 11.1875 10.4062C11.9583 11.1562 12.3438 12.0833 12.3438 13.1875C12.3438 14.25 11.9583 15.1667 11.1875 15.9375C10.4375 16.6875 9.51042 17.0625 8.40625 17.0625Z" fill="white" style="fill:white;fill-opacity:1;"/>
<path d="M39.0938 55.75C34.7396 55.75 30.9792 54.8125 27.8125 52.9375C24.6458 51.0417 22.2083 48.3542 20.5 44.875C18.7917 41.375 17.9375 37.2396 17.9375 32.4688V32.4062C17.9375 27.6354 18.7917 23.5104 20.5 20.0312C22.2292 16.5521 24.6771 13.875 27.8438 12C31.0104 10.1042 34.7604 9.15625 39.0938 9.15625C43.4062 9.15625 47.1458 10.1042 50.3125 12C53.4792 13.8958 55.9167 16.5833 57.625 20.0625C59.3333 23.5208 60.1875 27.6354 60.1875 32.4062V32.4688C60.1875 37.2396 59.3333 41.3646 57.625 44.8438C55.9167 48.3229 53.4792 51.0104 50.3125 52.9062C47.1667 54.8021 43.4271 55.75 39.0938 55.75ZM39.0938 49.5312C41.9688 49.5312 44.4479 48.8333 46.5312 47.4375C48.6146 46.0417 50.2188 44.0625 51.3438 41.5C52.4688 38.9375 53.0312 35.9271 53.0312 32.4688V32.4062C53.0312 28.9271 52.4583 25.9167 51.3125 23.375C50.1875 20.8125 48.5729 18.8438 46.4688 17.4688C44.3854 16.0729 41.9271 15.375 39.0938 15.375C36.2396 15.375 33.7604 16.0625 31.6562 17.4375C29.5729 18.8125 27.9583 20.7812 26.8125 23.3438C25.6667 25.8854 25.0938 28.9062 25.0938 32.4062V32.4688C25.0938 35.9479 25.6667 38.9688 26.8125 41.5312C27.9583 44.0938 29.5729 46.0729 31.6562 47.4688C33.7396 48.8438 36.2188 49.5312 39.0938 49.5312Z" fill="white" style="fill:white;fill-opacity:1;"/>
<path d="M82.25 55.75C78.875 55.75 75.9167 55.2396 73.375 54.2188C70.8542 53.1979 68.8542 51.7396 67.375 49.8438C65.8958 47.9271 65.0625 45.6458 64.875 43L64.8438 42.5312H71.6875L71.75 42.9375C71.9583 44.3125 72.5312 45.5104 73.4688 46.5312C74.4271 47.5312 75.6771 48.3021 77.2188 48.8438C78.7604 49.3854 80.5312 49.6562 82.5312 49.6562C84.5521 49.6562 86.2917 49.375 87.75 48.8125C89.2083 48.25 90.3333 47.4479 91.125 46.4062C91.9375 45.3646 92.3438 44.1458 92.3438 42.75V42.7188C92.3438 40.9062 91.6875 39.4688 90.375 38.4062C89.0833 37.3229 86.9375 36.4583 83.9375 35.8125L79.0312 34.7812C74.6146 33.8438 71.3229 32.3438 69.1562 30.2812C66.9896 28.1979 65.9062 25.4896 65.9062 22.1562V22.125C65.9271 19.5625 66.6354 17.3125 68.0312 15.375C69.4271 13.4167 71.3542 11.8958 73.8125 10.8125C76.2708 9.70833 79.0938 9.15625 82.2812 9.15625C85.4062 9.15625 88.1667 9.6875 90.5625 10.75C92.9583 11.8125 94.8542 13.3021 96.25 15.2188C97.6458 17.1146 98.4271 19.3333 98.5938 21.875L98.625 22.375H91.7812L91.7188 21.9688C91.5312 20.5521 91.0104 19.3438 90.1562 18.3438C89.3229 17.3438 88.2292 16.5833 86.875 16.0625C85.5208 15.5208 83.9479 15.25 82.1562 15.25C80.3021 15.25 78.6875 15.5312 77.3125 16.0938C75.9375 16.6354 74.875 17.3958 74.125 18.375C73.375 19.3542 73 20.5104 73 21.8438V21.875C73 23.5625 73.6667 24.9375 75 26C76.3333 27.0625 78.4062 27.8958 81.2188 28.5L86.125 29.5625C89.2292 30.2083 91.7604 31.0833 93.7188 32.1875C95.6771 33.2917 97.125 34.6667 98.0625 36.3125C99 37.9583 99.4688 39.9479 99.4688 42.2812V42.3125C99.4688 45.0625 98.7708 47.4479 97.375 49.4688C96 51.4688 94.0208 53.0208 91.4375 54.125C88.875 55.2083 85.8125 55.75 82.25 55.75Z" fill="white" style="fill:white;fill-opacity:1;"/>
</svg>
